local/share/icons/dracula-icons-main/16/devices/network-wireless-connected-50.svg

<?xml version="1.0" encoding="UTF-8"?>
<svg xmlns="http://www.w3.org/2000/svg" xmlns:xlink="http://www.w3.org/1999/xlink" width="16" height="16" viewBox="0 0 16 16">
<defs>
<filter id="filter-remove-color" x="0%" y="0%" width="100%" height="100%">
<feColorMatrix color-interpolation-filters="sRGB" values="0 0 0 0 1 0 0 0 0 1 0 0 0 0 1 0 0 0 1 0" />
</filter>
<mask id="mask-0">
<g filter="url(#filter-remove-color)">
<rect x="-1.6" y="-1.6" width="19.2" height="19.2" fill="rgb(0%, 0%, 0%)" fill-opacity="0.35"/>
</g>
</mask>
<clipPath id="clip-0">
<rect x="0" y="0" width="16" height="16"/>
</clipPath>
<g id="source-14599" clip-path="url(#clip-0)">
<path fill-rule="nonzero" fill="rgb(44.705882%, 44.705882%, 44.705882%)" fill-opacity="1" d="M 8.03125 2.003906 C 4.996094 2.003906 2.265625 3.078125 0 4.753906 L 8.03125 13.503906 L 16 4.71875 C 13.742188 3.066406 11.042969 2.003906 8.03125 2.003906 Z M 8.03125 2.003906 "/>
</g>
</defs>
<g mask="url(#mask-0)">
<use xlink:href="#source-14599"/>
</g>
<path fill-rule="nonzero" fill="rgb(44.705882%, 44.705882%, 44.705882%)" fill-opacity="1" d="M 8.019531 7.03125 C 6.3125 7.03125 4.773438 7.640625 3.5 8.578125 L 8.019531 13.503906 L 12.5 8.5625 C 11.230469 7.632812 9.710938 7.03125 8.019531 7.03125 Z M 8.019531 7.03125 "/>
</svg>

<svg xmlns="http://www.w3.org/2000/svg" width="16" height="16" version="1.1" viewBox="0 0 16 16">
 <defs>
  <style id="current-color-scheme" type="text/css">
   .ColorScheme-Text { color:#727272; } .ColorScheme-Highlight { color:#5294e2; }
  </style>
 </defs>
 <g style="fill:currentColor;" class="ColorScheme-Text">
  <path d="m8.031 2.002c-3.034 0-5.766 1.078-8.031 2.75l8.031 8.75 7.969-8.782c-2.257-1.653-4.958-2.718-7.969-2.718z" opacity=".35" overflow="visible"/>
  <path d="m8.018 7.033c-1.707 0-3.244 0.606-4.518 1.547l4.518 4.922 4.482-4.94c-1.27-0.93-2.789-1.53-4.482-1.53z" overflow="visible"/>
 </g>
</svg>
